X:1
T:The Boll Weevil
M:2/4
L:1/8
K:C
 z3 E| GG G3/2 E/2| G G/2 G3/2 G| cc c3/2 A/2| c3 A/2A/2| c c/2c/2 c A/2A/2|\
 c c2- c/2c/2| ec BA| G G/2G/2 AG| B4-| B G/2G/2 AG| c G/2G/2 AG| B4-|\
 B G/2G/2 AG| c3 z|
